**harm	**harte	**timestamp	**phrase	**leadinstrument	**kern
*M4/4	*M4/4	*	*	*	*
*G:	*G:	*	*	*	*G:
1r;	N	0	.	r	1r;
=1	=1	=1	=1	=1	=1
*>C_intro	*>C_intro	*>C_intro	*>C_intro	*>C_intro	*>C_intro
1I	G:maj	0.496	newline	r	1G 1b 1dd
=2	=2	=2	=2	=2	=2
1I	G:maj	1.898	.	r	1G 1b 1dd
=3	=3	=3	=3	=3	=3
1I	G:maj	3.3	newline	r	1G 1b 1dd
=4	=4	=4	=4	=4	=4
1I	G:maj	4.623	.	r	1G 1b 1dd
=5	=5	=5	=5	=5	=5
1V7	D:7	5.945	.	r	1D 1f# 1a 1cc
=6	=6	=6	=6	=6	=6
1V7	D:7	7.267	.	r	1D 1f# 1a 1cc
=7	=7	=7	=7	=7	=7
*>A_verse	*>A_verse	*>A_verse	*>A_verse	*>A_verse	*>A_verse
1I	G:maj	8.59	newline	r	1G 1b 1dd
=8	=8	=8	=8	=8	=8
1I	G:maj	9.899	.	r	1G 1b 1dd
=9	=9	=9	=9	=9	=9
1vi	E:min	11.208	.	r	1E 1g 1b
=10	=10	=10	=10	=10	=10
1vi	E:min	12.517	.	r	1E 1g 1b
=11	=11	=11	=11	=11	=11
1IV	C:maj	13.826	.	r	1C 1e 1g
=12	=12	=12	=12	=12	=12
1IV	C:maj	15.135	.	r	1C 1e 1g
=13	=13	=13	=13	=13	=13
1V7	D:7	16.444	.	r	1D 1f# 1a 1cc
=14	=14	=14	=14	=14	=14
1V7	D:7	17.753	.	r	1D 1f# 1a 1cc
=15	=15	=15	=15	=15	=15
1I	G:maj	19.061	newline	r	1G 1b 1dd
=16	=16	=16	=16	=16	=16
1I	G:maj	20.384	.	r	1G 1b 1dd
=17	=17	=17	=17	=17	=17
1vi	E:min	21.706	.	r	1E 1g 1b
=18	=18	=18	=18	=18	=18
1vi	E:min	23.029	.	r	1E 1g 1b
=19	=19	=19	=19	=19	=19
1IV	C:maj	24.351	.	r	1C 1e 1g
=20	=20	=20	=20	=20	=20
1IV	C:maj	25.673	.	r	1C 1e 1g
=21	=21	=21	=21	=21	=21
1V7	D:7	26.996	.	r	1D 1f# 1a 1cc
=22	=22	=22	=22	=22	=22
1V7	D:7	28.318	.	r	1D 1f# 1a 1cc
=23	=23	=23	=23	=23	=23
*>B_chorus	*>B_chorus	*>B_chorus	*>B_chorus	*>B_chorus	*>B_chorus
1I	G:maj	29.64	newline	r	1G 1b 1dd
=24	=24	=24	=24	=24	=24
1I	G:maj	30.955	.	r	1G 1b 1dd
=25	=25	=25	=25	=25	=25
1V7	D:7	32.27	.	r	1D 1f# 1a 1cc
=26	=26	=26	=26	=26	=26
1V7	D:7	33.585	.	r	1D 1f# 1a 1cc
=27	=27	=27	=27	=27	=27
1Im7	G:7	34.9	.	r	1G 1b 1dd 1ff#
=28	=28	=28	=28	=28	=28
1Im7	G:7	36.214	.	r	1G 1b 1dd 1ff#
=29	=29	=29	=29	=29	=29
1IV	C:maj	37.529	.	r	1C 1e 1g
=30	=30	=30	=30	=30	=30
1IV	C:maj	38.844	.	r	1C 1e 1g
=31	=31	=31	=31	=31	=31
1I	G:maj	40.159	newline	r	1G 1b 1dd
=32	=32	=32	=32	=32	=32
1I	G:maj	41.469	.	r	1G 1b 1dd
=33	=33	=33	=33	=33	=33
1V7	D:7	42.779	.	r	1D 1f# 1a 1cc
=34	=34	=34	=34	=34	=34
1V7	D:7	44.089	.	r	1D 1f# 1a 1cc
=35	=35	=35	=35	=35	=35
1I	G:maj	45.399	.	r	1G 1b 1dd
=36	=36	=36	=36	=36	=36
1I	G:maj	46.709	.	r	1G 1b 1dd
=37	=37	=37	=37	=37	=37
1IV	C:maj	48.02	.	r	1C 1e 1g
=38	=38	=38	=38	=38	=38
1V7	D:7	49.33	.	r	1D 1f# 1a 1cc
=39	=39	=39	=39	=39	=39
*>A_verse	*>A_verse	*>A_verse	*>A_verse	*>A_verse	*>A_verse
1I	G:maj	50.64	newline	r	1G 1b 1dd
=40	=40	=40	=40	=40	=40
1I	G:maj	51.954	.	r	1G 1b 1dd
=41	=41	=41	=41	=41	=41
1vi	E:min	53.267	.	r	1E 1g 1b
=42	=42	=42	=42	=42	=42
1vi	E:min	54.581	.	r	1E 1g 1b
=43	=43	=43	=43	=43	=43
1IV	C:maj	55.895	.	r	1C 1e 1g
=44	=44	=44	=44	=44	=44
1IV	C:maj	57.209	.	r	1C 1e 1g
=45	=45	=45	=45	=45	=45
1V7	D:7	58.522	.	r	1D 1f# 1a 1cc
=46	=46	=46	=46	=46	=46
1V7	D:7	59.836	.	r	1D 1f# 1a 1cc
=47	=47	=47	=47	=47	=47
1I	G:maj	61.15	newline	r	1G 1b 1dd
=48	=48	=48	=48	=48	=48
1I	G:maj	62.469	.	r	1G 1b 1dd
=49	=49	=49	=49	=49	=49
1vi	E:min	63.788	.	r	1E 1g 1b
=50	=50	=50	=50	=50	=50
1vi	E:min	65.108	.	r	1E 1g 1b
=51	=51	=51	=51	=51	=51
1IV	C:maj	66.427	.	r	1C 1e 1g
=52	=52	=52	=52	=52	=52
1IV	C:maj	67.746	.	r	1C 1e 1g
=53	=53	=53	=53	=53	=53
1V7	D:7	69.066	.	r	1D 1f# 1a 1cc
=54	=54	=54	=54	=54	=54
1V7	D:7	70.385	.	r	1D 1f# 1a 1cc
=55	=55	=55	=55	=55	=55
*>B_chorus	*>B_chorus	*>B_chorus	*>B_chorus	*>B_chorus	*>B_chorus
1I	G:maj	71.705	newline	r	1G 1b 1dd
=56	=56	=56	=56	=56	=56
1I	G:maj	73.019	.	r	1G 1b 1dd
=57	=57	=57	=57	=57	=57
1V7	D:7	74.334	.	r	1D 1f# 1a 1cc
=58	=58	=58	=58	=58	=58
1V7	D:7	75.649	.	r	1D 1f# 1a 1cc
=59	=59	=59	=59	=59	=59
1Im7	G:7	76.963	.	r	1G 1b 1dd 1ff#
=60	=60	=60	=60	=60	=60
1Im7	G:7	78.278	.	r	1G 1b 1dd 1ff#
=61	=61	=61	=61	=61	=61
1IV	C:maj	79.593	.	r	1C 1e 1g
=62	=62	=62	=62	=62	=62
1IV	C:maj	80.907	.	r	1C 1e 1g
=63	=63	=63	=63	=63	=63
1I	G:maj	82.222	newline	r	1G 1b 1dd
=64	=64	=64	=64	=64	=64
1I	G:maj	83.548	.	r	1G 1b 1dd
=65	=65	=65	=65	=65	=65
1V7	D:7	84.874	.	r	1D 1f# 1a 1cc
=66	=66	=66	=66	=66	=66
1V7	D:7	86.201	.	r	1D 1f# 1a 1cc
=67	=67	=67	=67	=67	=67
1I	G:maj	87.527	.	r	1G 1b 1dd
=68	=68	=68	=68	=68	=68
1I	G:maj	88.853	.	r	1G 1b 1dd
=69	=69	=69	=69	=69	=69
1Im7	G:7	90.18	.	r	1G 1b 1dd 1ff#
=70	=70	=70	=70	=70	=70
1Im7	G:7	91.506	.	r	1G 1b 1dd 1ff#
=71	=71	=71	=71	=71	=71
*>F_bridge	*>F_bridge	*>F_bridge	*>F_bridge	*>F_bridge	*>F_bridge
1IV	C:maj	92.832	newline	r	1C 1e 1g
=72	=72	=72	=72	=72	=72
1IV	C:maj	94.15	.	r	1C 1e 1g
=73	=73	=73	=73	=73	=73
1I	G:maj	95.468	.	r	1G 1b 1dd
=74	=74	=74	=74	=74	=74
1Im7	G:7	96.786	.	r	1G 1b 1dd 1ff#
=75	=75	=75	=75	=75	=75
1IV	C:maj	98.104	.	r	1C 1e 1g
=76	=76	=76	=76	=76	=76
1IV	C:maj	99.422	.	r	1C 1e 1g
=77	=77	=77	=77	=77	=77
1III7	B:7	100.739	.	r	1B 1dd# 1ff# 1aa
=78	=78	=78	=78	=78	=78
1III7	B:7	102.057	.	r	1B 1dd# 1ff# 1aa
=79	=79	=79	=79	=79	=79
*>A_verse	*>A_verse	*>A_verse	*>A_verse	*>A_verse	*>A_verse
1I	G:maj	103.375	newline	r	1G 1b 1dd
=80	=80	=80	=80	=80	=80
1I	G:maj	104.692	.	r	1G 1b 1dd
=81	=81	=81	=81	=81	=81
1vi	E:min	106.009	.	r	1E 1g 1b
=82	=82	=82	=82	=82	=82
1vi	E:min	107.326	.	r	1E 1g 1b
=83	=83	=83	=83	=83	=83
1IV	C:maj	108.643	.	r	1C 1e 1g
=84	=84	=84	=84	=84	=84
1IV	C:maj	109.96	.	r	1C 1e 1g
=85	=85	=85	=85	=85	=85
1V7	D:7	111.277	.	r	1D 1f# 1a 1cc
=86	=86	=86	=86	=86	=86
1V7	D:7	112.594	.	r	1D 1f# 1a 1cc
=87	=87	=87	=87	=87	=87
1I	G:maj	113.911	newline	r	1G 1b 1dd
=88	=88	=88	=88	=88	=88
1I	G:maj	115.236	.	r	1G 1b 1dd
=89	=89	=89	=89	=89	=89
1vi	E:min	116.56	.	r	1E 1g 1b
=90	=90	=90	=90	=90	=90
1vi	E:min	117.884	.	r	1E 1g 1b
=91	=91	=91	=91	=91	=91
1IV	C:maj	119.208	.	r	1C 1e 1g
=92	=92	=92	=92	=92	=92
1IV	C:maj	120.532	.	r	1C 1e 1g
=93	=93	=93	=93	=93	=93
1V7	D:7	121.857	.	r	1D 1f# 1a 1cc
=94	=94	=94	=94	=94	=94
1V7	D:7	123.181	.	r	1D 1f# 1a 1cc
=95	=95	=95	=95	=95	=95
*>B_chorus	*>B_chorus	*>B_chorus	*>B_chorus	*>B_chorus	*>B_chorus
1I	G:maj	124.505	newline	r	1G 1b 1dd
=96	=96	=96	=96	=96	=96
1I	G:maj	125.827	.	r	1G 1b 1dd
=97	=97	=97	=97	=97	=97
1V7	D:7	127.149	.	r	1D 1f# 1a 1cc
=98	=98	=98	=98	=98	=98
1V7	D:7	128.47	.	r	1D 1f# 1a 1cc
=99	=99	=99	=99	=99	=99
1Im7	G:7	129.792	.	r	1G 1b 1dd 1ff#
=100	=100	=100	=100	=100	=100
1Im7	G:7	131.114	.	r	1G 1b 1dd 1ff#
=101	=101	=101	=101	=101	=101
1IV	C:maj	132.436	.	r	1C 1e 1g
=102	=102	=102	=102	=102	=102
1IV	C:maj	133.757	.	r	1C 1e 1g
=103	=103	=103	=103	=103	=103
1I	G:maj	135.079	newline	r	1G 1b 1dd
=104	=104	=104	=104	=104	=104
1I	G:maj	136.397	.	r	1G 1b 1dd
=105	=105	=105	=105	=105	=105
1V7	D:7	137.714	.	r	1D 1f# 1a 1cc
=106	=106	=106	=106	=106	=106
1V7	D:7	139.031	.	r	1D 1f# 1a 1cc
=107	=107	=107	=107	=107	=107
1I	G:maj	140.349	.	r	1G 1b 1dd
=108	=108	=108	=108	=108	=108
1I	G:maj	141.666	.	r	1G 1b 1dd
=109	=109	=109	=109	=109	=109
1IV	C:maj	142.983	.	r	1C 1e 1g
=110	=110	=110	=110	=110	=110
1V7	D:7	144.301	.	r	1D 1f# 1a 1cc
=111	=111	=111	=111	=111	=111
*>E_fadeout	*>E_fadeout	*>E_fadeout	*>E_fadeout	*>E_fadeout	*>E_fadeout
1I	G:maj	145.618	newline	r	1G 1b 1dd
=112	=112	=112	=112	=112	=112
1I	G:maj	146.982	.	r	1G 1b 1dd
=113	=113	=113	=113	=113	=113
1IV	C:maj	148.346	.	r	1C 1e 1g
=114	=114	=114	=114	=114	=114
1V7	D:7	149.711	.	r	1D 1f# 1a 1cc
1r;	N	151.075	.	r	1r;
1r;	N	154.453	.	r	1r;
*-	*-	*-	*-	*-	*-
!!!OTL: Sea Of Heartbreak
!!!COC: Don Gibson
!!!BillboardChartDate: 1961/06/19
!!!BillboardPeak: 21
!!!BillboardWeeksOnChart: 14
!!!SampleTargetRank: 96
!!!SampleActualRank: 95
!!!SampleID#: 0169
!!!RDF**harmony: **recip + pitch class of root + harmonic quality
!!!RDF**harte: Chris Harte's syntax, used by MIREX
!!!RDF**phrase: newline = linebreak in original McGill transcription
!!!RDF**timestamp: McGill audio timestamp in seconds
!!!RDF**leadinstrument: original McGill primary instrumentation annotation
!!!RDT: 2017/01/12/
!!!ENC: Nathaniel Condit-Schultz
!!!EST: Awating manual error checking and editing.
